picto/departure-left-framed.svg

<svg class="color-immutable" width="30" height="30" viewBox="0 0 30 30" fill="none" xmlns="http://www.w3.org/2000/svg"><path d="M29.9999 0H0V29.9999H29.9999V0Z" fill="#2D327D"/><path d="M25.4999 2.99999C26.3249 2.99999 26.9999 3.67499 26.9999 4.49999V25.4999C26.9999 26.3249 26.3249 26.9999 25.4999 26.9999H4.49999C3.67499 26.9999 2.99999 26.3249 2.99999 25.4999V4.49999C2.99999 3.67499 3.67499 2.99999 4.49999 2.99999H25.4999ZM25.4999 2.62499H4.49999C3.46612 2.62499 2.62499 3.46612 2.62499 4.49999V25.4999C2.62499 26.5338 3.46612 27.3749 4.49999 27.3749H25.4999C26.5338 27.3749 27.3749 26.5338 27.3749 25.4999V4.49999C27.3749 3.46612 26.5338 2.62499 25.4999 2.62499Z" fill="white"/><path d="M6.18754 24.1854H23.8125C23.915 24.1854 23.998 24.1025 23.998 23.9999C23.998 23.8974 23.915 23.8145 23.8125 23.8145H6.18754C6.08509 23.8145 6.00206 23.8974 6.00206 23.9999C6.00206 24.1025 6.08509 24.1854 6.18754 24.1854Z" fill="white"/><path d="M5.88087 11.808C6.17787 11.6288 6.49999 11.4951 6.83606 11.4096C7.51676 11.2364 8.23421 11.2687 8.89721 11.502L14.3918 13.5021L21.3908 7.79054L22.8486 8.19457L19.256 15.2723L21.8003 16.1983L23.5562 14.019L24.6309 14.4668L23.0698 18.1961H17.7178L7.11236 14.3358C6.59726 14.1484 6.12342 13.8623 5.71692 13.4947L5.71714 13.4956C5.56257 13.3555 5.45284 13.1734 5.40169 12.9724C5.28694 12.5212 5.48224 12.0477 5.88087 11.808Z" fill="white"/></svg>

<svg class="color-immutable" width="30" height="30" viewBox="0 0 30 30" fill="none" xmlns="http://www.w3.org/2000/svg"><path d="M30 0H0v30h30V0Z" fill="#2D327D"/><path d="M25.5 3c.825 0 1.5.675 1.5 1.5v21c0 .825-.675 1.5-1.5 1.5h-21c-.825 0-1.5-.675-1.5-1.5v-21C3 3.675 3.675 3 4.5 3h21Zm0-.375h-21A1.877 1.877 0 0 0 2.625 4.5v21c0 1.034.841 1.875 1.875 1.875h21a1.877 1.877 0 0 0 1.875-1.875v-21A1.877 1.877 0 0 0 25.5 2.625Z" fill="#fff"/><path d="M6.188 24.185h17.625a.185.185 0 1 0 0-.37H6.188a.185.185 0 1 0 0 .37ZM5.88 11.808a3.564 3.564 0 0 1 3.016-.306l5.496 2 6.999-5.711 1.458.404-3.593 7.077 2.544.926 1.756-2.179 1.075.448-1.561 3.73h-5.352L7.112 14.335a4.245 4.245 0 0 1-1.395-.841 1.056 1.056 0 0 1 .164-1.688Z" fill="#fff"/></svg>
